img/youtube.svg

<svg width="24" height="24" viewBox="0 0 24 24" fill="none" xmlns="http://www.w3.org/2000/svg">
<g clip-path="url(#clip0_75_106)">
<path d="M23.469 5.929L23.4991 6.125C23.3622 5.62624 23.1005 5.17057 22.7387 4.80104C22.3769 4.4315 21.9268 4.16028 21.431 4.013L21.41 4.008C19.539 3.5 12.0101 3.5 12.0101 3.5C12.0101 3.5 4.50005 3.49 2.61005 4.008C2.11343 4.15172 1.66159 4.41957 1.29715 4.78628C0.932714 5.153 0.667683 5.60649 0.52705 6.104L0.52205 6.125C-0.17695 9.776 -0.18195 14.163 0.55305 18.072L0.52205 17.874C0.658867 18.3728 0.920549 18.8284 1.28239 19.198C1.64422 19.5675 2.09428 19.8387 2.59005 19.986L2.61105 19.991C4.48005 20.5 12.0111 20.5 12.0111 20.5C12.0111 20.5 19.52 20.5 21.411 19.991C21.9079 19.8475 22.36 19.5798 22.7246 19.213C23.0893 18.8463 23.3544 18.3927 23.4951 17.895L23.5 17.874C23.8181 16.176 24 14.222 24 12.226L23.9991 12.005L24 11.775C24 9.778 23.8181 7.824 23.469 5.929ZM9.60805 15.651V8.358L15.8741 12.01L9.60805 15.651Z" fill="#3391AC"/>
</g>
<defs>
<clipPath id="clip0_75_106">
<rect width="24" height="24" fill="white"/>
</clipPath>
</defs>
</svg>

<svg width="24" height="24" fill="none" xmlns="http://www.w3.org/2000/svg"><g clip-path="url(#clip0_75_106)"><path d="M23.469 5.929l.03.196a3.044 3.044 0 00-2.068-2.112l-.021-.005c-1.871-.508-9.4-.508-9.4-.508s-7.51-.01-9.4.508A3.044 3.044 0 00.527 6.104l-.005.021c-.699 3.651-.704 8.038.031 11.947l-.031-.198a3.043 3.043 0 002.068 2.112l.021.005c1.869.509 9.4.509 9.4.509s7.509 0 9.4-.509a3.042 3.042 0 002.084-2.096l.005-.021c.318-1.698.5-3.652.5-5.648v-.451c0-1.997-.182-3.951-.531-5.846zM9.608 15.651V8.358l6.266 3.652-6.266 3.641z" fill="#3391AC"/></g><defs><clipPath id="clip0_75_106"><path fill="#fff" d="M0 0h24v24H0z"/></clipPath></defs></svg>
